Numix-GalliumOS/64/mimetypes/application-x-krita.svg

<?xml version="1.0" encoding="UTF-8" standalone="no"?>
<svg
   xmlns:dc="http://purl.org/dc/elements/1.1/"
   xmlns:cc="http://creativecommons.org/ns#"
   xmlns:rdf="http://www.w3.org/1999/02/22-rdf-syntax-ns#"
   xmlns:svg="http://www.w3.org/2000/svg"
   xmlns="http://www.w3.org/2000/svg"
   xmlns:sodipodi="http://sodipodi.sourceforge.net/DTD/sodipodi-0.dtd"
   xmlns:inkscape="http://www.inkscape.org/namespaces/inkscape"
   width="64px"
   height="64px"
   viewBox="0 0 64 64"
   version="1.1"
   id="svg2"
   inkscape:version="0.91 r13725"
   sodipodi:docname="application-x-krita2.svg">
  <metadata
     id="metadata17">
    <rdf:RDF>
      <cc:Work
         rdf:about="">
        <dc:format>image/svg+xml</dc:format>
        <dc:type
           rdf:resource="http://purl.org/dc/dcmitype/StillImage" />
      </cc:Work>
    </rdf:RDF>
  </metadata>
  <defs
     id="defs15" />
  <sodipodi:namedview
     pagecolor="#ffffff"
     bordercolor="#666666"
     borderopacity="1"
     objecttolerance="10"
     gridtolerance="10"
     guidetolerance="10"
     inkscape:pageopacity="0"
     inkscape:pageshadow="2"
     inkscape:window-width="1366"
     inkscape:window-height="713"
     id="namedview13"
     showgrid="false"
     inkscape:zoom="1"
     inkscape:cx="32"
     inkscape:cy="17.434136"
     inkscape:window-x="0"
     inkscape:window-y="28"
     inkscape:window-maximized="1"
     inkscape:current-layer="svg2">
    <inkscape:grid
       type="xygrid"
       id="grid3351" />
  </sodipodi:namedview>
  <g
     id="surface1">
    <path
       style=" stroke:none;fill-rule:nonzero;fill:rgb(60.392157%,46.666667%,23.529412%);fill-opacity:1;"
       d="M 10.671875 0 C 9.296875 0 8 1.355469 8 2.789062 L 8 61.210938 C 8 62.566406 9.375 64 10.671875 64 L 53.328125 64 C 54.625 64 56 62.566406 56 61.210938 L 56 18 L 38 0 Z M 10.671875 0 "
       id="path5" />
    <path
       style=" stroke:none;fill-rule:nonzero;fill:rgb(0%,0%,0%);fill-opacity:0.196078;"
       d="M 42 18 L 56 32 L 56 18 Z M 42 18 "
       id="path7" />
    <path
       style=" stroke:none;fill-rule:nonzero;fill:rgb(100%,100%,100%);fill-opacity:0.392157;"
       d="M 38 0 L 55.984375 18 L 40.757812 18 C 39.410156 18 38 16.574219 38 15.226562 Z M 38 0 "
       id="path9" />
  </g>
  <path
     style="fill:#ffffff;fill-opacity:1;fill-rule:nonzero;stroke:none"
     d="m 21.184504,22.000011 c -1.639821,0 -4.118733,3.230856 -2.822775,4.388841 l 6.763243,6.0432 c 0.255631,-0.510306 0.583445,-1.03292 1.038826,-1.528574 0.496995,-0.538387 0.975715,-0.890102 1.416829,-1.186765 l -5.09351,-6.748695 c -0.533396,-0.57081 -0.62813,-0.968007 -1.302613,-0.968007 z m 12.449593,7.68389 c -0.353126,0 -0.72649,0.01218 -1.079617,0.02187 -1.472713,0.0085 -3.016656,0.265208 -4.383738,0.765654 -0.977699,0.793717 -1.656318,1.668772 -2.303361,2.715338 -1.291238,3.572144 0.247404,9.589293 5.90934,10.987141 6.418129,1.578533 6.760949,-0.128184 9.509878,1.755536 2.763195,1.878857 1.216098,4.726015 2.52636,3.934917 0.672962,-0.400431 2.806624,-3.393955 2.012383,-8.277271 -0.859633,-5.231255 -3.098733,-8.017421 -5.351854,-9.920693 -1.746617,-1.478419 -4.33743,-1.982492 -6.83667,-1.982492 z"
     id="path47"
     inkscape:connector-curvature="0"
     sodipodi:nodetypes="cscccccsccccccccss" />
</svg>

<svg xmlns="http://www.w3.org/2000/svg" viewBox="0 0 64 64">
 <g>
  <path d="m 10.672 0 c -1.375 0 -2.672 1.355 -2.672 2.789 l 0 58.42 c 0 1.355 1.375 2.789 2.672 2.789 l 42.656 0 c 1.297 0 2.672 -1.434 2.672 -2.789 l 0 -43.21 l -18 -18 m -27.328 0" style="fill:#9a773c;fill-opacity:1;stroke:none;fill-rule:nonzero"/>
  <path d="m 42 18 l 14 14 l 0 -14 m -14 0" style="fill:#000;fill-opacity:0.196;stroke:none;fill-rule:nonzero"/>
  <path d="m 38 0 l 17.984 18 l -15.227 0 c -1.348 0 -2.758 -1.426 -2.758 -2.773 m 0 -15.227" style="fill:#fff;fill-opacity:0.392;stroke:none;fill-rule:nonzero"/>
 </g>
 <path d="m 21.18 22 c -1.64 0 -4.119 3.231 -2.823 4.389 l 6.763 6.04 c 0.256 -0.51 0.583 -1.033 1.039 -1.529 0.497 -0.538 0.976 -0.89 1.417 -1.187 l -5.094 -6.749 c -0.533 -0.571 -0.628 -0.968 -1.303 -0.968 z m 12.45 7.684 c -0.353 0 -0.726 0.012 -1.08 0.022 -1.473 0.009 -3.02 0.265 -4.384 0.766 -0.978 0.794 -1.656 1.669 -2.303 2.715 -1.291 3.572 0.247 9.589 5.909 10.987 6.418 1.579 6.761 -0.128 9.51 1.756 2.763 1.879 1.216 4.726 2.526 3.935 0.673 -0.4 2.807 -3.394 2.01 -8.277 -0.86 -5.231 -3.099 -8.02 -5.352 -9.921 -1.747 -1.478 -4.337 -1.982 -6.837 -1.982 z" style="fill:#fff;fill-opacity:1;stroke:none;fill-rule:nonzero"/>
</svg>
